16x16/apps/dotmemory.svg

<svg height="16" width="16" xmlns="http://www.w3.org/2000/svg"><path d="m8 0h-7.2c-.443 0-.8.357-.8.8v7.2h8z" fill="#f7c73c"/><path d="m8 0h7.2c.443 0 .8.357.8.8v7.2h-8z" fill="#cf4f8c"/><path d="m8 16h-7.2a.798.798 0 0 1 -.8-.8v-7.2h8z" fill="#6655e4"/><path d="m8 16h7.2c.443 0 .8-.357.8-.8v-7.2h-8z" fill="#f7c73c"/><path d="m2 2h12v12h-12z" fill="#17191e"/><g fill="none" stroke="#f4f4f7" stroke-linecap="round"><path d="m3.507 11.5h4"/><path d="m3.507 7.5s2.022.175 2-2-2-2-2-2m-.007 3.997v-4" stroke-linejoin="bevel"/><path d="m10.507 7.5v-4m-3 0 1.5 2 1.5-2m-3 4v-4" stroke-linejoin="round"/></g></svg>

<svg xmlns="http://www.w3.org/2000/svg" width="16" height="16" version="1"><path style="fill:#f7c73c" d="M8 0H.8C.357 0 0 .357 0 .8V8h8z"/><path style="fill:#cf4f8c" d="M8 0h7.2c.443 0 .8.357.8.8V8H8z"/><path style="fill:#6655e4" d="M8 16H.8a.798.798 0 0 1-.8-.8V8h8z"/><path style="fill:#f7c73c" d="M8 16h7.2c.443 0 .8-.357.8-.8V8H8z"/><path style="fill:#17191e" d="M2 2h12v12H2z"/><path style="fill:none;stroke:#f4f4f7;stroke-linecap:round" d="M3.507 11.5h4"/><path style="fill:none;stroke:#f4f4f7;stroke-width:.99999994;stroke-linecap:round;stroke-linejoin:bevel" d="M3.507 7.5s2.022.175 2-2c-.022-2.175-2-2-2-2M3.5 7.497v-4"/><path style="fill:none;stroke:#f4f4f7;stroke-width:.99999994;stroke-linecap:round;stroke-linejoin:round" d="M10.507 7.5v-4m-3 0 1.5 2 1.5-2m-3 4v-4"/></svg>
